Hatter-kde/actions/24/draw-square-inverted-corners.svg

<?xml version="1.0" encoding="UTF-8"?>
<svg viewBox="0 0 24 24" xmlns="http://www.w3.org/2000/svg">
 <defs id="defs3051">
  <style id="current-color-scheme" type="text/css">.ColorScheme-Text {
        color:#363636;
      }</style>
 </defs>
 <path class="ColorScheme-Text" d="m8 4v0.50781 1.9922c0 0.831-0.669 1.5-1.5 1.5h-2.5v1 6 1h2.5c0.831 0 1.5 0.669 1.5 1.5v1.9922 0.50781h1 6 1v-0.50781-1.9922c0-0.831 0.669-1.5 1.5-1.5h1.9922 0.50781v-1-6-1h-0.50781-1.9922c-0.831 0-1.5-0.669-1.5-1.5v-2.5h-1-6-1zm1 1h6v1.5c0 1.385 1.115 2.5 2.5 2.5h1.5v6h-1.5c-1.385 0-2.5 1.115-2.5 2.5v1.5h-6v-1.5c0-1.385-1.115-2.5-2.5-2.5h-1.5v-6h1.5c1.385 0 2.5-1.115 2.5-2.5v-1.5z" fill="currentColor"/>
</svg>

<svg xmlns="http://www.w3.org/2000/svg" viewBox="0 0 24 24">
  <defs id="defs3051">
    <style type="text/css" id="current-color-scheme">
      .ColorScheme-Text {
        color:#363636;
      }
      </style>
  </defs>
 <path style="fill:currentColor;fill-opacity:1;stroke:none" 
     d="M 8 4 L 8 4.5078125 L 8 6.5 C 8 7.331 7.331 8 6.5 8 L 4 8 L 4 9 L 4 15 L 4 16 L 6.5 16 C 7.331 16 8 16.669 8 17.5 L 8 19.492188 L 8 20 L 9 20 L 15 20 L 16 20 L 16 19.492188 L 16 17.5 C 16 16.669 16.669 16 17.5 16 L 19.492188 16 L 20 16 L 20 15 L 20 9 L 20 8 L 19.492188 8 L 17.5 8 C 16.669 8 16 7.331 16 6.5 L 16 4 L 15 4 L 9 4 L 8 4 z M 9 5 L 15 5 L 15 6.5 C 15 7.885 16.115 9 17.5 9 L 19 9 L 19 15 L 17.5 15 C 16.115 15 15 16.115 15 17.5 L 15 19 L 9 19 L 9 17.5 C 9 16.115 7.885 15 6.5 15 L 5 15 L 5 9 L 6.5 9 C 7.885 9 9 7.885 9 6.5 L 9 5 z "
     class="ColorScheme-Text"
     />
</svg>
